X: 10553
T: FAIRY DANCE
R: reel
B: K\"ohler's Violin Repository, v.1, 1885 p.553 #3
F: http://www.archive.org/details/klersviolinrepos01edin
Z: 2011 John Chambers <jc:trillian.mit.edu>
M: 2/4
L: 1/16
K: D
|:\
vf2fd f2fd | f2(fd) cecA | f2fd (gf)ed | cABc defg |
(fa)fd (fa)fd | (fa)fd (ce)cA | (fa)fd (gf)ed | cABc d2d2 ||
va2af b2ba | g2ge a2ag | f2fd (gf)ed | cABc defg |
(a^g)af (b^a)b=a | (=gf)ge (a^g)a=g | (fe)fd (gf)ed | cABc d2"^D.C.""_Fine."d2 |]

%%sep 2 1 500

